X:1413
T:Da Lerwick's Lasses
O:england
M:4/4
L:1/8
Q:1/4=220
C:Trad Shetland
S:Finish on A Part
R:reel
B:Fiddler's Fake Book
K:G
dc|:"G"BG G2 "D"AFAc|"G"BG (3GGG g2 dc|"G"BG G2 "D"AFAc|[1"G"BG"D"AF "G"
G2 dc:|[2"G"BG"D"AF "G"G2 Bd||
"G"g2 ge "D"fafe|"D"(3ddd fd fafd|"G"g2 gf "C"ege^c|
[1"D"eaaf gede:|[2"D"eaaf ge||
